icons/animal_mosquitos.svg

<svg width="48" height="48" viewBox="0 0 48 48" fill="none" xmlns="http://www.w3.org/2000/svg">
<path fill-rule="evenodd" clip-rule="evenodd" d="M32 7C32 6.44772 31.5523 6 31 6C30.4477 6 30 6.44772 30 7V12.4229C30 12.4816 30.0051 12.539 30.0147 12.5949C30.0002 12.6048 29.9858 12.6149 29.9717 12.6251C29.8938 12.5438 29.8009 12.4744 29.6943 12.4215L27.5915 11.3766L26.9498 9.4287C26.777 8.90414 26.2117 8.61899 25.6871 8.79178C25.1626 8.96458 24.8774 9.5299 25.0502 10.0545L25.8226 12.3991C25.9062 12.653 26.088 12.8628 26.3274 12.9817L28.3837 14.0035L20.7474 15.1023L20.5833 15.7517C20.4115 16.4318 20.4597 17.4412 21.17 18.2879C21.8901 19.1461 23.1178 19.6342 24.8853 19.6342C26.5822 19.6342 27.7997 19.0347 28.6086 18.1734C28.695 18.7085 28.8315 19.2044 29.0132 19.6327L28.2998 20.4773C28.1012 20.7124 28.022 21.0259 28.0849 21.3271L28.4047 22.8576L27.5752 23.6872C27.1846 24.0777 27.1846 24.7109 27.5752 25.1014C27.9657 25.4919 28.5988 25.4919 28.9894 25.1014L30.2013 23.8895C30.4399 23.6509 30.542 23.3081 30.473 22.9778L30.1424 21.3953L30.3503 21.1491C30.5449 21.2305 30.762 21.2804 31 21.2804C31.4957 21.2804 31.9009 21.0638 32.1998 20.7981L32.664 21.379L32.33 22.9778C32.261 23.3081 32.3632 23.6509 32.6017 23.8895L33.8136 25.1014C34.2042 25.4919 34.8373 25.4919 35.2279 25.1014C35.6184 24.7109 35.6184 24.0777 35.2279 23.6872L34.3983 22.8576L34.7181 21.3271C34.7791 21.0352 34.7066 20.7312 34.5204 20.4982L33.3578 19.0436C33.3195 18.9957 33.2777 18.9522 33.233 18.9133C33.3401 18.5189 33.4164 18.0904 33.4593 17.6425C33.5107 17.7173 33.5648 17.7914 33.6218 17.8644C34.4199 18.888 35.7164 19.6342 37.6096 19.6342C39.3771 19.6342 40.6048 19.1461 41.3249 18.2879C42.0352 17.4412 42.0834 16.4318 41.9116 15.7517L41.7475 15.1023L33.303 13.8872L35.1252 12.9817C35.3646 12.8628 35.5464 12.653 35.63 12.3991L36.4024 10.0545C36.5751 9.5299 36.29 8.96458 35.7654 8.79178C35.2409 8.61899 34.6756 8.90414 34.5028 9.4287L33.8611 11.3766L32 12.3013V7ZM39.7927 17.0024C39.8323 16.9552 39.8651 16.906 39.892 16.8559L34.8941 16.1367C34.975 16.3075 35.0756 16.4763 35.199 16.6346C35.6005 17.1496 36.3035 17.6342 37.6096 17.6342C39.0412 17.6342 39.5908 17.243 39.7927 17.0024ZM22.6029 16.8559C22.6298 16.906 22.6626 16.9552 22.7022 17.0024C22.9041 17.243 23.4537 17.6342 24.8853 17.6342C26.1914 17.6342 26.8944 17.1496 27.2959 16.6346C27.4193 16.4763 27.5199 16.3075 27.6008 16.1367L22.6029 16.8559ZM30.5 16.7804C30.5 15.9161 30.6521 15.181 30.8585 14.6994C30.9083 14.5833 30.9567 14.4924 31 14.423C31.0433 14.4924 31.0918 14.5833 31.1415 14.6994C31.3479 15.181 31.5 15.9161 31.5 16.7804C31.5 17.6447 31.3479 18.3797 31.1415 18.8614C31.0918 18.9775 31.0433 19.0683 31 19.1378C30.9567 19.0683 30.9083 18.9775 30.8585 18.8614C30.6521 18.3797 30.5 17.6447 30.5 16.7804Z" fill="black"/>
<path fill-rule="evenodd" clip-rule="evenodd" d="M19 17.7849C19.5523 17.7849 20 18.2326 20 18.7849V24.6138C20.2047 24.7583 20.3742 24.9337 20.5084 25.104C20.524 25.1238 20.5394 25.1438 20.5546 25.1642L21.9088 24.0357L22.6006 22.6103C22.8418 22.1135 23.44 21.9062 23.9369 22.1473C24.4338 22.3885 24.641 22.9867 24.3999 23.4836L23.6141 25.1027C23.5521 25.2304 23.4637 25.3434 23.3546 25.4343L21.4974 26.9819C21.4794 26.997 21.461 27.0112 21.4422 27.0248L31.7632 28.2129L31.9584 28.831C32.1987 29.5916 32.1019 30.6666 31.213 31.5142C30.3634 32.3244 28.9368 32.7854 26.8144 32.7854C24.5861 32.7854 23.0519 32.0922 22.0755 31.0905C21.9988 31.0118 21.9261 30.9318 21.8573 30.8507L21.8573 30.8567C21.8573 31.1943 21.8478 31.527 21.8294 31.8525C21.8513 31.8654 21.8728 31.8792 21.894 31.894L23.9819 33.3516C24.0753 33.4168 24.1569 33.4975 24.2231 33.5902L25.3327 35.1432L27.181 35.6075C27.7166 35.7421 28.0418 36.2854 27.9072 36.821C27.7727 37.3566 27.2293 37.6818 26.6937 37.5472L24.489 36.9934C24.2589 36.9356 24.0569 36.7979 23.919 36.6049L22.6959 34.893L21.539 34.0854C21.4722 34.3956 21.3957 34.6895 21.3101 34.9635L22.7754 36.1908C23.0582 36.4276 23.1877 36.8009 23.1122 37.1619L22.6816 39.2228L23.8232 40.3643C24.2137 40.7549 24.2137 41.388 23.8232 41.7785C23.4327 42.1691 22.7995 42.1691 22.409 41.7785L20.885 40.2546C20.6465 40.016 20.5443 39.6733 20.6133 39.343L21.0319 37.3394L20.3632 36.7793C20.0492 37.1175 19.5952 37.4284 19 37.4284C18.4508 37.4284 18.0217 37.1635 17.712 36.8568L17.3388 37.2589L17.7742 39.343C17.8433 39.6733 17.7411 40.0161 17.5025 40.2547L15.9786 41.7786C15.588 42.1691 14.9549 42.1691 14.5644 41.7786C14.1738 41.3881 14.1738 40.7549 14.5644 40.3644L15.7059 39.2228L15.2753 37.162C15.209 36.8446 15.3007 36.5148 15.5213 36.2771L16.7028 35.0042C16.6262 34.7633 16.5567 34.5068 16.4948 34.237L15.7115 34.8653L14.4685 36.6049C14.3306 36.7979 14.1286 36.9356 13.8985 36.9934L11.6938 37.5473C11.1582 37.6818 10.6149 37.3567 10.4803 36.821C10.3458 36.2854 10.6709 35.7421 11.2066 35.6075L13.0549 35.1432L14.1645 33.5903C14.2177 33.5157 14.281 33.4489 14.3524 33.3916L16.1697 31.9339L16.1752 31.9295C16.1539 31.5795 16.1428 31.221 16.1428 30.8567L16.1428 30.8507C16.074 30.9318 16.0013 31.0118 15.9246 31.0905C14.9482 32.0922 13.414 32.7854 11.1857 32.7854C9.0633 32.7854 7.63672 32.3244 6.78704 31.5142C5.89819 30.6666 5.80142 29.5916 6.04167 28.831L6.23692 28.2129L16.5578 27.0248C16.5391 27.0112 16.5207 26.997 16.5026 26.9819L14.6454 25.4343C14.5364 25.3434 14.448 25.2304 14.386 25.1027L13.6002 23.4836C13.359 22.9867 13.5663 22.3885 14.0632 22.1473C14.56 21.9062 15.1583 22.1135 15.3994 22.6103L16.0912 24.0357L17.4455 25.1642C17.4607 25.1438 17.4761 25.1238 17.4917 25.104C17.6259 24.9337 17.7953 24.7584 18 24.6139V18.7849C18 18.2326 18.4477 17.7849 19 17.7849ZM29.8878 30.0102C29.8709 30.029 29.8527 30.0478 29.8329 30.0667C29.5232 30.362 28.7149 30.7854 26.8144 30.7854C25.0199 30.7854 24.0398 30.2404 23.5077 29.6945C23.3626 29.5457 23.2441 29.39 23.1482 29.2344L29.8878 30.0102ZM8.11227 30.0102C8.12914 30.029 8.14742 30.0478 8.16722 30.0667C8.47689 30.362 9.28522 30.7854 11.1857 30.7854C12.9802 30.7854 13.9602 30.2404 14.4924 29.6945C14.6374 29.5457 14.756 29.39 14.8519 29.2344L8.11227 30.0102ZM18.1428 30.8567C18.1428 29.3957 18.3417 28.1146 18.6355 27.2332C18.76 26.8597 18.8889 26.5965 19 26.4288C19.1112 26.5965 19.2401 26.8597 19.3646 27.2332C19.6584 28.1146 19.8573 29.3957 19.8573 30.8567C19.8573 32.3177 19.6584 33.5989 19.3646 34.4802C19.2401 34.8537 19.1112 35.1169 19 35.2846C18.8889 35.1169 18.76 34.8537 18.6355 34.4802C18.3417 33.5989 18.1428 32.3177 18.1428 30.8567Z" fill="black"/>
</svg>

<svg
  xmlns="http://www.w3.org/2000/svg"
  width="24"
  height="24"
  viewBox="0 0 24 24"
  fill="none"
  stroke="currentColor"
  stroke-width="2"
  stroke-linecap="round"
  stroke-linejoin="round"
>
  <path
    fill-rule="evenodd"
    d="M32 7a1 1 0 1 0-2 0v5.423q0 .088.015.172l-.043.03a1 1 0 0 0-.278-.203l-2.102-1.045-.642-1.948a1 1 0 1 0-1.9.626l.773 2.344a1 1 0 0 0 .504.583l2.057 1.022-7.637 1.098-.164.65c-.171.68-.123 1.69.587 2.536.72.858 1.948 1.346 3.715 1.346 1.697 0 2.915-.6 3.724-1.46.086.535.222 1.03.404 1.459l-.713.844a1 1 0 0 0-.215.85l.32 1.53-.83.83a1 1 0 1 0 1.414 1.414l1.212-1.211a1 1 0 0 0 .272-.912l-.33-1.583.207-.246c.195.081.412.131.65.131.496 0 .9-.216 1.2-.482l.464.581-.334 1.599a1 1 0 0 0 .272.912l1.212 1.211a1 1 0 0 0 1.414-1.414l-.83-.83.32-1.53a1 1 0 0 0-.198-.829l-1.162-1.454a1 1 0 0 0-.125-.13 7.7 7.7 0 0 0 .226-1.272q.078.113.163.222c.798 1.024 2.094 1.77 3.988 1.77 1.767 0 2.995-.488 3.715-1.346.71-.847.758-1.856.587-2.536l-.164-.65-8.445-1.215 1.822-.905a1 1 0 0 0 .505-.583l.772-2.344a1 1 0 0 0-1.9-.626l-.64 1.948L32 12.3zm7.793 10.002a1 1 0 0 0 .099-.146l-4.998-.72q.121.26.305.499c.401.515 1.105 1 2.41 1 1.432 0 1.982-.392 2.184-.633m-17.19-.146q.04.076.1.146c.201.241.75.632 2.182.632 1.306 0 2.01-.484 2.41-1q.185-.239.306-.497zm7.897-.076c0-.864.152-1.599.358-2.08q.076-.175.142-.277.066.104.142.276c.206.482.358 1.217.358 2.081 0 .865-.152 1.6-.358 2.081q-.076.173-.142.277a2 2 0 0 1-.142-.277c-.206-.481-.358-1.216-.358-2.08"
    clip-rule="evenodd"
  />
  <path
    fill-rule="evenodd"
    d="M19 17.785a1 1 0 0 1 1 1v5.829a2.5 2.5 0 0 1 .555.55l1.354-1.128.692-1.426a1 1 0 0 1 1.799.874l-.786 1.619a1 1 0 0 1-.26.331l-1.857 1.548-.055.043 10.321 1.188.195.618c.24.76.144 1.836-.745 2.683-.85.81-2.276 1.271-4.399 1.271-2.228 0-3.762-.693-4.738-1.694a5 5 0 0 1-.219-.24v.006q0 .506-.028.995l.065.042 2.088 1.458a1 1 0 0 1 .241.238l1.11 1.553 1.848.465a1 1 0 0 1-.487 1.94l-2.205-.555a1 1 0 0 1-.57-.388l-1.223-1.712-1.157-.808q-.1.467-.229.879l1.465 1.227a1 1 0 0 1 .337.97l-.43 2.062 1.141 1.141a1 1 0 0 1-1.414 1.415l-1.524-1.524a1 1 0 0 1-.272-.912l.419-2.004-.669-.56c-.314.338-.768.65-1.363.65-.55 0-.978-.266-1.288-.572l-.373.402.435 2.084a1 1 0 0 1-.271.912l-1.524 1.524a1 1 0 0 1-1.415-1.415l1.142-1.141-.43-2.061a1 1 0 0 1 .245-.885l1.182-1.273a10 10 0 0 1-.208-.767l-.784.628-1.242 1.74a1 1 0 0 1-.57.388l-2.205.554a1 1 0 0 1-.487-1.94l1.848-.464 1.11-1.553a1 1 0 0 1 .187-.198l1.818-1.458.005-.005a18 18 0 0 1-.032-1.072v-.006a5 5 0 0 1-.218.24c-.977 1.001-2.511 1.694-4.74 1.694-2.122 0-3.548-.46-4.398-1.27-.889-.848-.986-1.923-.745-2.684l.195-.618 10.32-1.188-.054-.043-1.858-1.548a1 1 0 0 1-.259-.331l-.786-1.62a1 1 0 1 1 1.8-.873l.691 1.426 1.354 1.128.047-.06c.134-.17.303-.346.508-.49v-5.83a1 1 0 0 1 1-1M29.888 30.01l-.055.057c-.31.295-1.118.718-3.019.718-1.794 0-2.774-.545-3.306-1.09a2.7 2.7 0 0 1-.36-.46zm-21.776 0q.025.028.055.057c.31.295 1.118.718 3.019.718 1.794 0 2.774-.545 3.306-1.09q.217-.226.36-.46zm10.03.847c0-1.461.2-2.742.494-3.624.124-.373.253-.637.364-.804.111.168.24.43.365.804.293.882.492 2.163.492 3.624 0 1.46-.199 2.742-.492 3.623a3.5 3.5 0 0 1-.365.805 3.5 3.5 0 0 1-.364-.805c-.294-.881-.493-2.162-.493-3.623"
    clip-rule="evenodd"
  />
</svg>
